svgs/unofficial/333_mirror_blocks.svg

<svg fill="none" height="500" viewBox="0 0 500 500" width="500" xmlns="http://www.w3.org/2000/svg"><g fill="#000"><path d="m88.0275 30h-58.0275v154.747h58.0275z"/><path d="m250.087 30h-116.058v154.747h116.058z"/><path d="m470.18 30h-174.092v154.747h174.092z"/><path d="m88.0275 230.747h-58.0275v116.057h58.0275z"/><path d="m250.087 230.747h-116.058v116.057h116.058z"/><path d="m470.18 230.747h-174.092v116.057h174.092z"/><path d="m88.0275 392.804h-58.0275v77.373h58.0275z"/><path d="m250.087 392.804h-116.058v77.373h116.058z"/><path d="m470.18 392.804h-174.092v77.373h174.092z"/></g></svg>

<svg width="500" height="500" viewBox="0 0 500 500" fill="none" xmlns="http://www.w3.org/2000/svg">
    <path d="M88.0275 30H30V184.747H88.0275V30Z" fill="black"/>
    <path d="M250.087 30H134.029V184.747H250.087V30Z" fill="black"/>
    <path d="M470.18 30H296.088V184.747H470.18V30Z" fill="black"/>
    <path d="M88.0275 230.747H30V346.804H88.0275V230.747Z" fill="black"/>
    <path d="M250.087 230.747H134.029V346.804H250.087V230.747Z" fill="black"/>
    <path d="M470.18 230.747H296.088V346.804H470.18V230.747Z" fill="black"/>
    <path d="M88.0275 392.804H30V470.177H88.0275V392.804Z" fill="black"/>
    <path d="M250.087 392.804H134.029V470.177H250.087V392.804Z" fill="black"/>
    <path d="M470.18 392.804H296.088V470.177H470.18V392.804Z" fill="black"/>
</svg>
